!!!!SEGMENT: pl-wtm--1481-sp-7693--001-002_szymanowski-karol--szesc-piesni-op-20-no-2-swiety-franciszek-mowi-ptaszki-leca-pytac-sie.krn
!!!cenid: 19xx:59
!!!COM: Szymanowski, Karol
!!!COM-rismID: pe30106403
!!!CDT: 1882-1937
!!!CNT: Polish
!!!GTL: Sześć pieśni Op. 20
!!!OTL: No. 2. Święty Franciszek mówi/Ptaszki lecą pytać się
!!!OMV: 002
!!!PDT: 1925
!!!AGN: Secular; Song
!!!YEC: Copyright 2022 Narodowy Instytut Fryderyka Chopina (https://polishscores.org)
!!!YEM: License CC-BY-4.0 (https://creativecommons.org/licenses/by/4.0)
!!!SMS-siglum: PL-Wtm
!!!SMS-shelfmark: 1481 śp 7693
!!!SMS-variant:
!!!SMS-altvar:
!!!SMS-shelfwork: 001-002 G
!!!NIFC-rismSourceID: 1001210639
!!!NIFC-rismChildID: 1001210639
!!!NIFC-islandoraID: pl-wtm:73423
!!!URL-pdf-islandora: https://repozytorium.nifc.pl/islandora/object/pl-wtm%3A73423/datastream/PDF/view
!!!URL-scan: https://polish.musicsources.pl/pl/lokalizacje/galeria/druki-muzyczne/18683/5 @EN{Scan on Polish Music Sources Website} @PL{Skany w portalu Dziedzictwo Muzyki Polskiej w otwartym dostępie}
!!!IIIF:
!!!ONB-nifc: UWAGA: str. 5.
!!!AIN: 1 canto 1 piano
!!!key: D
**kern	**kern	**dynam	**kern	**text	**text	**text
*part2	*part2	*part2	*part1	*part1	*part1	*part1
*staff3	*staff2	*staff2/3	*staff1	*staff1	*staff1	*staff1
*group2	*group2	*	*group1	*	*	*
*IGacmp	*IGacmp	*	*IGsolo	*	*	*
*ICklav	*ICklav	*	*ICvox	*	*	*
*Ipiano	*Ipiano	*	*Icanto	*	*	*
*I"Piano.	*I"Piano.	*	*I"Canto.	*	*	*
*	*I'	*	*I'	*	*	*
*clefF4	*clefG2	*	*clefG2	*	*	*
*k[f#c#]	*k[f#c#]	*	*k[f#c#]	*	*	*
*D:	*D:	*	*D:	*	*	*
*M6/8	*M6/8	*	*M6/8	*	*	*
=1	=1	=1	=1	=1	=1	=1
*^	*^	*	*	*	*	*
*	*	*^	*	*	*	*	*	*
!!LO:TX:a:B:t=Andantino divoto.
!	!	!	!	!	!LO:DY:rj	!	!	!	!
(8.G/L	4.AA\	(4.a 4.c#/	(4f#\	4.ryy	pp <	2.r	.	.	.
16G#X/K	.	.	.	.	.	.	.	.	.
!LO:TX:t=P:problem:strzałka od 8A/J) do 4A#X>\	!	!	!	!	!	!	!	!	!
8A/J)	.	.	8fn\)	.	[	.	.	.	.
4.ryy	4.D 4.DD\	(4cc# 4e~/	4g#X\	4A#X\	>	.	.	.	.
.	.	8b 8gn/))	8ryy	8B\	]	.	.	.	.
=2	=2	=2	=2	=2	=2	=2	=2	=2	=2
(8.G/L	4.AA\	(4.a 4.c#/	(4f#\	4.ryy	<	2.r	.	.	.
16G#X/K	.	.	.	.	.	.	.	.	.
!LO:TX:t=P:problem:strzałka od 8A/J) do 4A#X>\	!	!	!	!	!	!	!	!	!
8A/J)	.	.	8fn\)	.	[	.	.	.	.
4.ryy	[4.D [4.DD\	(4cc# 4g#X~/	4.e\	4A#X\	.	.	.	.	.
.	.	8b 8gn/))	.	8B\	.	.	.	.	.
*v	*v	*	*	*	*	*	*	*	*
*	*v	*v	*	*	*	*	*	*
*	*v	*v	*	*	*	*	*
=3	=3	=3	=3	=3	=3	=3
*M9/8	*M9/8	*	*M9/8	*	*	*
*	*^	*	*	*	*	*
8D] 8DD/]	(>4.a 4.f# 4.d#X 4.cn~/	2.ryy	>	4r	.	.	.
[4AA [4AAA~/	.	.	.	.	.	.	.
.	.	.	.	8r	.	.	.
8AA] 8AAA/]	4.g 4.e 4.c#X 4.B-X~/	.	.	8r	.	.	.
[4DD [4DDD~/	.	.	.	8ee\	Ptasz-	Les	Vög-
.	.	.	.	8ee-X\	-ki	pe-	-lein
4.DD_ 4.DDD/_	(8g#X/L)	4.f# 4.d# 4.A\	]	4dd\	le-	-tits	kom-
.	8a/	.	.	.	.	.	.
.	8a#X/J)	.	.	8cc#\	-cą	oi-	-men
*	*v	*v	*	*	*	*	*
=4	=4	=4	=4	=4	=4	=4
*M6/8	*M6/8	*	*M6/8	*	*	*
*^	*^	*	*	*	*	*
*	*	*^	*	*	*	*	*	*
(8.B/L	4.DD] 4.DDD/]	4.dd 4.f#/	(4b\	4.ryy	.	(4b\	py-	-seaux	fra-
16c#/K	.	.	.	.	.	.	.	.	.
!LO:TX:t=P:problem:strzałka od 8d/J) do 4d#X>\	!	!	!	!	!	!	!	!	!
8d/J)	.	.	8b-X\)	.	.	8b-X\)	-tać	de-	.
4.ryy	4.GG 4.GGG/	(4ff# 4cc#~/	4.a\	4d#X\	.	4a/	się	-man-	-gen,
.	.	8ee 8ccn/)	.	8e\	.	8ee\	com	-dent	was
!!LO:LB:g=original
=5	=5	=5	=5	=5	=5	=5	=5	=5	=5
8.cn/L	4.D\	(4.dd 4.f#/	(4b\	4.ryy	.	8dd\	wi-	ce	ich
.	.	.	.	.	.	8dd\	-dział	que	in
16c#X/K	.	.	.	.	.	.	.	.	.
8d/J	.	.	8b-X\)	.	.	8dd\	w nie-	je	den
4.ryy	([4.G [4.GG/	4ff# 4cc#X~/	4.a\	4d#X\	.	(4ff#\	-bio-	vis	Him-
.	.	8ee 8ccn/)	.	8e\	.	8ee\)	.	au	-meln
*v	*v	*	*	*	*	*	*	*	*
*	*v	*v	*	*	*	*	*	*
*	*v	*v	*	*	*	*	*
=6	=6	=6	=6	=6	=6	=6
8G] 8GG/]	(>4.dd 4.b 4.g#X 4.fn~/	.	(4.dd\	-sach:_	ciel:_	sah:_
[4D [4DD/	.	.	.	.	.	.
4D] 4DD/]	4.ccn 4.a 4.f#X 4.e-X~/	.	4ccn\)	.	.	.
[8DD &(<[8DDD/)	.	.	8cc\	Du-	vos	.
=7	=7	=7	=7	=7	=7	=7
*^	*^	*	*	*	*	*
*	*	*^	*	*	*	*	*	*
4.ryy	4DD] 4DDD/]	([4.b/)	4gn 4B\	4gn 4B\	.	([4.bn\	-szycz-	â-	Eu-
!	!	!	!LO:TX:t=P:problem:strzałka od 8f# 8A\ do (4G#X/	!	!	!	!	!	!
.	8DD#X 8DDD#X/	.	8f# 8A\	8f# 8A\	.	.	.	.	.
(4G#X/	4.EE 4.EEE/&)	8.b/L]	8fn 8d\	4.ryy	.	(8.b\L]	.	.	.
.	.	.	4e\	.	.	.	.	.	.
.	.	16dd/K	.	.	.	16dd\Jk))	.	.	.
!	!	!LO:TX:t=P:problem:# w nawiasie	!	!	!	!	!	!	!
8Gn/)	.	8cc#X/J	.	.	.	8cc#X\	-ki	-mes	-re
*	*	*v	*v	*	*	*	*	*	*
*	*	*v	*v	*	*	*	*	*
=8	=8	=8	=8	=8	=8	=8	=8
!	!	!LO:TX:t=P:problem:pionowa klamra łukowa między pięcioliniami	!	!	!	!	!
4F#::/	2.FF# 2.FFF#\	4.b:: 4.f#X:: 4.d~:/	.	[2.ff#\	wa-	dou-	Seel-
[8D/	.	.	.	.	.	.	.
8D/L]	.	4.a 4.f# 4.cn~/	.	.	.	.	.
8D#X/	.	.	.	.	.	.	.
8cn/J	.	.	.	.	.	.	.
*v	*v	*	*	*	*	*	*
=9	=9	=9	=9	=9	=9	=9
*M9/8	*M9/8	*	*M9/8	*	*	*
*^	*^	*	*	*	*	*
4.GG 4.GGG~/	4.ryy	4.a 4.f# 4.d#X 4.cn~/	4.ryy	.	4.ff#\]	.	.	.
(8.B/L	4.G\	(4.ee 4.e/)	(8.b\L	.	4.ee\	-sze,	-ces	-chen,
16B#X/K	.	.	16b-X\K	.	.	.	.	.
8c#X/J)	.	.	8an\J)	.	.	.	.	.
4e#X 4d 4G#X\	4.ryy	4ccc# 4cc#/	4.ee#X\	.	4r	.	.	.
!	!	!LO:SIC:v:s=8bb 8bn/)	!	!	!	!	!	!
8GG#X 8GGG#X/	.	8bb 8b-/)	.	.	8b\	du-	vos	die
*v	*v	*	*	*	*	*	*	*
*	*v	*v	*	*	*	*	*
!!LO:LB:g=original
=10	=10	=10	=10	=10	=10	=10
*M6/8	*M6/8	*	*M6/8	*	*	*
*	*^	*	*	*	*	*
!LO:TX:t=P:problem:mixed beam	!	!	!	!	!	!	!
(8AA#XL 8FF# 8AAA#X/	(4.ff# 4.cc# 4.f#/	8.een\L	.	[4.cc#\	-szycz-	pauv-	klei-
8d#X\	.	.	.	.	.	.	.
.	.	16dd#X\K	.	.	.	.	.
!LO:TX:t=P:problem:strzałka o 8e\J) do 4cc# 4c#~/	!	!	!	!	!	!	!
8e\J)	.	8ddn\J	.	.	.	.	.
4dn 4G#X\	4cc# 4c#~/	4e#X\	.	4cc#\]	.	.	.
8BB 8BBB/	8b 8g#X 8B/)	8ryy	.	8b\	-ki	-res	-nen
=11	=11	=11	=11	=11	=11	=11	=11
*^	*	*	*	*	*	*	*
4D-X 4DD-X/	4.ryy	[4.b-X/	4g-X 4B-X\	.	[4.b-X\	bar-	â-	lei-
!	!	!	!LO:TX:t=P:problem:kreska od 8fn 8A-X\ do 4Gn/	!	!	!	!	!
8Dn 8DDn/	.	.	8fn 8A-X\	.	.	.	.	.
4Gn/	4.E-X 4.EE-X\	8.b-/L]	8f-X 8d-X\	.	8b-\]	.	.	.
.	.	.	4e-X\	.	8b-\	-dzo	-mes	-den-
.	.	16dd-X/K	.	.	.	.	.	.
8G-X/	.	8ccn/J	.	.	8ccn\	cier-	souff-	-den
*	*	*v	*v	*	*	*	*	*
=12	=12	=12	=12	=12	=12	=12	=12
(>4FFn 4FFFn/	4.ryy	4.b-X 4.fn 4.d-X~/	<	4.dd-X\	-pią-	-ran-	See-
[>8D-X/	.	.	.	.	.	.	.
8D-/L]	4.FF#X 4.FFF#X\	4.an 4.e-X 4.cn~/	[[	[4.ccn\	-ce._	-tes._	-len._
8Dn/	.	.	.	.	.	.	.
!LO:TX:t=P:problem:kreska od 8An/J) do (>4a 4e-X 4cn/	!	!	!	!	!	!	!
8An/J)	.	.	.	.	.	.	.
*v	*v	*	*	*	*	*	*
=13	=13	=13	=13	=13	=13	=13
*	*^	*^	*	*	*	*
!	!	!	!LO:DY:b	!	!	!	!	!
(8FF#XL 8FFF#X/	(>4a 4e-X 4cn/	4.ryy	pp <	<	8cc\]	.	.	.
8GG 8GGG/	.	.	.	.	8r	.	.	.
8GG#XJ 8GGG#X/	8f#X/	.	.	.	8a/	U-	Les	Und
8AAL 8AAA/	8.a/L	8cL 8F#X\	[	.	4ccn\	-mar-	morts	To-
8BB-X 8BBB-X/	.	8d-X [8Gn\	.	[	.	.	.	.
.	16ccn/K	.	.	.	.	.	.	.
8DD-XJ 8DDD-X/)	8b-X/J)	8fnJ 8G\]	[	.	8b-X\	-li	.	-te
=14	=14	=14	=14	=14	=14	=14	=14	=14
(8FF#XL 8FFF#X/	4a/	4.e-X 4.cn\	<	<	4r	.	.	.
8GG 8GGG/	.	.	.	.	.	.	.	.
!	!LO:TX:t=cre-scen-do:ext=cd:problem:text with extention lines	!	!	!	!	!	!	!
8GG#XJ 8GGG#X/	8f#X/	.	[<	.	8ccn\	py-	me	be-
8AAL 8AAA/	8.a/L	8cL 8F#\	.	.	4ee-X\	-ta-	di-	-fra-
8BB-X 8BBB-X/	.	8d-X [8Gn\	.	[	.	.	.	.
.	16ccn/K	.	.	.	.	.	.	.
8DD-XJ 8DDD-X/)	8b-X/J	8fnJ 8G\]	.	.	8dd-X\	-ją	-sent	-gen
!!LO:PB:g=original
=15	=15	=15	=15	=15	=15	=15	=15	=15
*	*	*	*	*	*^	*	*	*
!LO:S:s=2:note:problem=note-level slur	!	!	!	!	!	!	!	!	!
(4CCn (4CCCn^>/	(>4.dd-X 4.b-X 4.en 4.d-X~>/	4.ryy	.	.	4.dd-X^\	4.ryy	mnie	leur	mich
8GGn/)	.	.	.	.	.	.	.	.	.
*	*	*	*	*	*Xbrackettup	*	*	*	*
!	!	!	!	!	!LO:TUP:a:problem:klamra łukowa	!	!	!	!
8AA-X\L	4.ccn 4.cn/)	(8.g-X\L	.	.	8ccn\	16%3cc/	o	cru-	um
8AAn\	.	.	.	.	8cc\	.	.	-elle	.
.	.	16fn\K	.	.	.	16%3cc/	.	.	.
8G-X\J)	.	8en\J)	.	.	8cc\	.	swych	an-	ihr
*	*	*	*	*	*v	*v	*	*	*
=16	=16	=16	=16	=16	=16	=16	=16	=16
*^	*	*	*	*	*	*	*	*
(>4CCn 4CCCn^>/	2ryy	(>4.ee-X 4.ccn 4.f#X 4.e-X~>/	4.ryy	[<	.	4.ee-X^\	lo-	-gois-	Schick-
8AAn/	.	.	.	[	.	.	.	.	.
!	!	!LO:TX:a:i:t=riten.	!	!	!	!	!	!	!
8BB-X/L	.	4.ddn 4.dn/	(8.a-X\L	.	.	[4.ddn\	-sach_	-se_	-sal_
8BBn/	[4BB\	.	.	.	.	.	.	.	.
.	.	.	16gn\K	.	.	.	.	.	.
8A-X/J)	.	.	8g-X\J)	.	.	.	.	.	.
*	*	*	*	*v	*v	*	*	*	*
*	*	*v	*v	*	*	*	*	*
=17	=17	=17	=17	=17	=17	=17	=17
!LO:TX:t=P:problem:lasciare vibrare (?)	!	!	!LO:DY:t=sub. %s dolciss.	!	!	!	!
8G 8Fn 8BB/]	4.ryy	(4.ffn 4.dd 4.g 4.fn~>/)	pp	8dd\]	.	.	.
(8CCCn/L	.	.	.	4r	.	.	.
8CCn/J)	.	.	.	.	.	.	.
(8G/L	(4Fn 4BB\	8.dddL 8.bb 8.dd\	.	4r	.	.	.
8G#X/	.	.	.	.	.	.	.
.	.	16eeeK 16ee\	>	.	.	.	.
8A/J)	8E 8Cn\)	8cccnJ 8ccn\)	.	8ccn\	I	et	und
=18	=18	=18	=18	=18	=18	=18	=18
!LO:TX:t=P:problem:lasciare vibrare (?)	!	!	!	!	!	!	!
8B-X 8G 8C#X~\	4.ryy	(4.bb-X 4.ee 4.b-X\	.	4b-X\	tyl-	seules	nur
(8CCCn/L	.	.	.	.	.	.	.
8CCn/J)	.	.	.	8b-\	-ko	les	die
!	!	!LO:TX:b:i:t=riten.	!	!	!	!	!
8G/L	(4B-X 4C#X\	8.eeeL 8.bb- 8.ee\	.	4b-\	kwiat-	fleurs	Blu-
8G#X/	.	.	.	.	.	.	.
.	.	16fff#K 16ff#\	.	.	.	.	.
8A/J	8F# 8Cn\)	8dddJ 8dd\)	]]	8a/	-ki	.	-men
*v	*v	*	*	*	*	*	*
!!LO:LB:g=original
=19	=19	=19	=19	=19	=19	=19
*M9/8	*M9/8	*	*M9/8	*	*	*
*	*^	*	*	*	*	*
!LO:TX:t=P:problem:lasciare vibrare	!LO:TX:t=P:problem:lasciare vibrare	!	!LO:DY:rj	!	!	!	!
N(>8CCnL 8CCCn/	2.aaa 2.fff# 2.ddd 2.ff#\	2.ryy	ppp <	8r	.	.	.
8FF#/	.	.	.	[4ccn\	ci-	dans	lei-
8AA/J	.	.	.	.	.	.	.
8D/L	.	.	.	4cc\]	.	.	.
8F#/	.	.	.	.	.	.	.
8A/J	.	.	[	8b\	-cho	les	-se
4.CC#X 4.CCC#X/	8a/L	4.g 4.e 4.A\	.	4a/	na	prés	auf
.	8ee/	.	.	.	.	.	.
.	8gg/JN)	.	.	8a/	sko-	fau-	ge-
=20	=20	=20	=20	=20	=20	=20	=20
!LO:TX:t=P:problem:lasciare vibrare	!LO:TX:t=P:problem:lasciare vibrare	!	!	!	!	!	!
N(>8DDL 8DDD/	2.aa 2.ff# 2.dd 2.f#\	2.ryy	.	[4.ccn\	-szo-	-chés_	-mäh-
8FF#/	.	.	.	.	.	.	.
8AA/J	.	.	.	.	.	.	.
8D/L	.	.	.	4cc\]	.	.	.
8F#/	.	.	.	.	.	.	.
8A/J	.	.	.	8b\	-nych	.	-ten
4.DD#X 4.DDD#X/	8b/L	4.a 4.f# 4.B\	.	8a/	łą-	off-	Wie-
.	8ff#/	.	.	8a/	-kach	-rent-	-sen
.	8aa/JN)	.	.	8a/	od-	-leurs	ver-
*	*v	*v	*	*	*	*	*
=21	=21	=21	=21	=21	=21	=21
*M6/8	*M6/8	*	*M6/8	*	*	*
N(>8EEL 8EEE/	4.ddd 4.gg#X 4.ee 4.b~\	.	[2.dd\	-da-	hum-	-schen-
8BB/	.	.	.	.	.	.
8G#X/J	.	<	.	.	.	.
4.EE#X 4.EEE#X/	8B/L	.	.	.	.	.
.	8d/	.	.	.	.	.
.	8g#X/JN)	[[	.	.	.	.
=22	=22	=22	=22	=22	=22	=22
*	*^	*	*	*	*	*
*	*	*^	*	*	*	*	*
(8FF#L 8FFF#/	(4.a 4.d 4.A/	(4f#\	4.ryy	<	4.dd\]	.	.	.
8AA/	.	.	.	.	.	.	.	.
8D/J)	.	8fn\)	.	.	.	.	.	.
4.GG 4.GGG/	(4cc# 4g#X~/	4.e\	(<4A#X\	[	4cc#X\	-ją	-bles	.
.	8b 8gn/))	.	8B\)	mf	8b\	a-	par-	-ken
=23	=23	=23	=23	=23	=23	=23	=23	=23
*	*	*	*	*	*^	*	*	*
!	!	!	!	!	!LO:N:vis=4.	!	!	!	!
(8AAL 8AAA/	(4.a~/	(>4f#/	8.c#L 8.G\	.	4a/	2ryy	-ro-	-fums	Bal-
8BB 8BBB/	.	.	.	.	.	.	.	.	.
.	.	.	16G#X\K	.	.	.	.	.	.
8C#J 8CC#/)	.	8fn/)	8A\J	.	8a/	.	-mat,	.	-sam
4.D 4.DD/	(4cc# 4g#X~/	(4e 4A#X\	4.ryy	.	4r	.	.	.	.
.	.	.	.	.	.	8ryy	.	.	.
*	*	*	*	*	*cue	*	*	*	*
.	8b 8gn/))	8B\)	.	.	16b/	8b\	jak	com-	wie
.	.	.	.	.	16b/	.	.	-me	.
*	*	*	*	*	*Xcue	*	*	*	*
!!LO:LB:g=original
=24	=24	=24	=24	=24	=24	=24	=24	=24	=24
*^	*	*	*	*	*	*	*	*	*
(8.G/L	4.AA\	4.a 4.c#/	(4f#\	4.ryy	>	8a/	8.a\	sio-	ja-	La-
.	.	.	.	.	.	8a/	.	-stra	-dis	-zars
16G#X/K	.	.	.	.	.	.	16a\	.	.	.
8A/J)	.	.	8fn\)	.	.	8a/	8a\	Ła-	Ma-	.
4.D 4.DD/	4.ryy	(4cc# 4g#X/	4.e\	(<4A#X\	.	8cc#\	4cc#/	-za-	-rie	Schwe-
.	.	.	.	.	.	8cc#\	.	.	au	.
.	.	8b 8gn/)	.	8B\)	]	8dd\	8dd/	-rza	Sei-	-ster
*	*	*	*v	*v	*	*	*	*	*	*
*	*	*	*	*	*v	*v	*	*	*
=25	=25	=25	=25	=25	=25	=25	=25	=25
!LO:TX:t=P:problem:"klamra" między pięcioliniami	!	!LO:TX:a:i:t=(sosten.)	!	!	!	!	!	!
4.c# 4.G/	4.AA 4.AAA\	(8.a/L	8f#\L	pp	[2.ggn\	Pa-	-gneur._	Je-
.	.	.	8fn\	<	.	.	.	.
.	.	16b/K	.	.	.	.	.	.
.	.	8g/J	8e\J	[	.	.	.	.
(8B-X/L	(8.CnL 8.CCn\	4e 4cn/	4.ryy	>	.	.	.	.
8A/	.	.	.	.	.	.	.	.
.	16BBK 16BBB\	.	.	.	.	.	.	.
8A-X/J)	8BB-XJ 8BBB-X\)	8f 8d/)	.	]]	.	.	.	.
=26	=26	=26	=26	=26	=26	=26	=26	=26
4.c# 4.G/	4.AA 4.AAA\	(8.a/L	8f#X\L	<	8gg\]	.	.	.
.	.	.	8fn\	.	4cc#\	-nu.	.	-su.
.	.	16b/K	.	.	.	.	.	.
.	.	8g/J	8e\J	[	.	.	.	.
(8B-X/L	(8.CnL 8.CCn\	4e 4cn/	4.ryy	>	4r	.	.	.
8A/	.	.	.	.	.	.	.	.
.	16BBK 16BBB\	.	.	.	.	.	.	.
8A-X/J)	8BB-XJ 8BBB-X\)	8f 8d/	.	]	8r	.	.	.
=27	=27	=27	=27	=27	=27	=27	=27	=27
!	!	!LO:TX:a:i:t=allargando	!	!	!	!	!	!
4.c#X 4.G/	(<[4.AA [4.AAA\	8.a/L	8f#X\L	.	2.r	.	.	.
.	.	.	8fn\	.	.	.	.	.
.	.	16b/K	.	.	.	.	.	.
.	.	8e/J)	8e\J	.	.	.	.	.
!	!	!	!LO:S:s=1:note:problem=note-level slur	!	!	!	!	!
4.ryy	8AA] 8AAA\]	8rff	4.g (4.c# 4.B-X~\	>	.	.	.	.
.	[4DD [4DDD/	(8eeL 8e/	.	.	.	.	.	.
.	.	8ee-XJ 8e-X/	.	]]	.	.	.	.
*v	*v	*	*	*	*	*	*	*
=28	=28	=28	=28	=28	=28	=28	=28
!	!	!LO:S:s=1:note:problem=note-level slur	!	!	!	!	!
4DD] 4DDD/]	2.dd 2.d/)	2.f#X 2.A) 2.F#\	.	2.r	.	.	.
[8D [8DD/	.	.	ppp	.	.	.	.
4.D] 4.DD;/])	.	.	.	.	.	.	.
*	*v	*v	*	*	*	*	*
==	==	==	==	==	==	==
*-	*-	*-	*-	*-	*-	*-
!!!system-decoration: g1{(g2)}
!!!RDF**kern: i = editorial accidental
!!!RDF**kern: > = above
!!!RDF**kern: < = below
!!!RDF**kern: N = linked
!!!RDF**dynam: > = "dim.", fontstyle= "italic"
!!!ENC: Filip Voros
!!!EED: Katarzyna Serwa
!!!END: 2023-10-11
!!!EEV: 2023-10-22
